assets/Speech balloon/Flat/speech_balloon_flat.svg

<svg width="32" height="32" viewBox="0 0 32 32" fill="none" xmlns="http://www.w3.org/2000/svg">
<path d="M16.0278 4C8.16615 4 3.53108 9.75575 1.66714 12.7026C0.772247 14.1175 0.77225 15.8825 1.66714 17.2974C2.53549 18.6702 3.97262 20.6044 6.02779 22.3015V26.5017C6.02779 27.6235 7.214 28.3483 8.21217 27.8365L12.5619 25.6063C13.6426 25.8582 14.7979 26 16.0278 26C23.8894 26 28.5245 20.2442 30.3884 17.2974C31.2833 15.8825 31.2833 14.1175 30.3884 12.7026C28.5245 9.75575 23.8894 4 16.0278 4Z" fill="#9B9B9B"/>
<path d="M16.0278 25C14.741 25 13.5452 24.8344 12.4384 24.5458L7.75592 26.9467C7.42319 27.1173 7.02779 26.8757 7.02779 26.5017V21.8222C4.88609 20.1489 3.39604 18.16 2.51228 16.7628C1.82387 15.6744 1.82387 14.3256 2.51227 13.2372C4.32778 10.3669 8.70189 5 16.0278 5C23.3537 5 27.7278 10.3669 29.5433 13.2372C30.2317 14.3256 30.2317 15.6744 29.5433 16.7628C27.7278 19.6331 23.3537 25 16.0278 25Z" fill="white"/>
</svg>

<svg xmlns="http://www.w3.org/2000/svg" width="32" height="32" fill="none"><path fill="#9B9B9B" d="M16.028 4C8.166 4 3.53 9.756 1.668 12.703a4.268 4.268 0 0 0 0 4.594c.867 1.373 2.305 3.307 4.36 5.005v4.2a1.5 1.5 0 0 0 2.184 1.335l4.35-2.23c1.08.251 2.236.393 3.466.393 7.861 0 12.497-5.756 14.36-8.703a4.268 4.268 0 0 0 0-4.594C28.524 9.756 23.89 4 16.028 4Z"/><path fill="#fff" d="M16.028 25a14.17 14.17 0 0 1-3.59-.454l-4.682 2.4a.5.5 0 0 1-.728-.444v-4.68c-2.142-1.673-3.632-3.662-4.516-5.06a3.267 3.267 0 0 1 0-3.525C4.328 10.367 8.702 5 16.028 5s11.7 5.367 13.515 8.237a3.268 3.268 0 0 1 0 3.526C27.728 19.633 23.353 25 16.028 25Z"/></svg>
